X: 21920
T: Kitchen Girl, The
R: reel
M: 4/4
K: Amixolydian
|:a4 g4|efed c2cd|ecef gaba|g2e2 e4|
a4 g4|efed c2cd|edef gfed|c2A2 A4:|
K: Amin
|:ABcA BAGB|ABAG E2EG|AGAB c2d2|e3f edcB|
ABcA BAGB|ABAG E2AB|c2A2 BAG2|A4 A4:|

